images_elementary_svg/cmd/sc_togglebreakpoint.svg

<svg height="16" width="16" xmlns="http://www.w3.org/2000/svg" xmlns:xlink="http://www.w3.org/1999/xlink"><radialGradient id="a" cx="17.814" cy="24.149" gradientTransform="matrix(-1.0867 0 0 1.04168 28.45 -19.52)" gradientUnits="userSpaceOnUse" r="9.125"><stop offset="0" stop-color="#fff"/><stop offset="1" stop-color="#b6b6b6"/></radialGradient><linearGradient id="b" gradientUnits="userSpaceOnUse" x1="7.814" x2="7.814" xlink:href="#f" y1="1.282" y2="14.67"/><linearGradient id="c" gradientTransform="matrix(.24324 0 0 -.24324 -9.45 14.168)" gradientUnits="userSpaceOnUse" x1="71.204" x2="71.204" xlink:href="#f" y1="6.238" y2="44.341"/><radialGradient id="d" cx="23.896" cy="3.99" gradientTransform="matrix(0 .4104 -.5417 0 10.16 -5.57)" gradientUnits="userSpaceOnUse" r="20.397"><stop offset="0" stop-color="#ed5353"/><stop offset="1" stop-color="#c6262e"/></radialGradient><radialGradient id="e" cx="23.896" cy="3.99" gradientTransform="matrix(0 .87967 -1.16115 0 12.633 -21.084)" gradientUnits="userSpaceOnUse" r="20.397"><stop offset="0" stop-color="#fff"/><stop offset=".262" stop-color="#ddd"/><stop offset=".661" stop-color="#abacae"/><stop offset="1" stop-color="#89898b"/></radialGradient><linearGradient id="f"><stop offset="0" stop-color="#fff"/><stop offset=".508" stop-color="#fff" stop-opacity=".235"/><stop offset=".835" stop-color="#fff" stop-opacity=".157"/><stop offset="1" stop-color="#fff" stop-opacity=".392"/></linearGradient><linearGradient id="g" gradientUnits="userSpaceOnUse" x1="7.928" x2="7.928" xlink:href="#f" y1="5.416" y2="10.565"/><g stroke-linecap="round" stroke-linejoin="round"><path d="m8 .502c-4.137 0-7.498 3.36-7.498 7.498 0 4.137 3.36 7.498 7.498 7.498 4.137 0 7.498-3.36 7.498-7.498 0-4.137-3.36-7.498-7.498-7.498z" fill="url(#e)" stroke="#8c8c8c" stroke-width="1.004"/><path d="m8 4.502c-1.93 0-3.498 1.568-3.498 3.498s1.568 3.498 3.498 3.498 3.498-1.568 3.498-3.498-1.568-3.498-3.498-3.498z" fill="url(#d)" stroke="#b10000" stroke-width="1.004"/><g fill="none"><path d="m12.5 8c0-2.485-2.015-4.5-4.5-4.5s-4.5 2.015-4.5 4.5 2.015 4.5 4.5 4.5 4.5-2.015 4.5-4.5z" opacity=".5" stroke="url(#c)"/><path d="m14.5 8c0 3.59-2.91 6.5-6.5 6.5s-6.5-2.91-6.5-6.5 2.91-6.5 6.5-6.5 6.5 2.91 6.5 6.5z" opacity=".8" stroke="url(#b)"/><path d="m10.5 8c0 1.38-1.12 2.5-2.5 2.5s-2.5-1.12-2.5-2.5 1.12-2.5 2.5-2.5 2.5 1.12 2.5 2.5z" opacity=".5" stroke="url(#g)"/></g></g><path d="m8.63 4.697 6.986 6.782-3.185.1 1.337 2.775c.41 1.233-1.438 1.695-1.746.77l-1.233-2.774-2.26 2.416.102-10.07z" fill="url(#a)" fill-rule="evenodd"/><g fill="none"><path d="m9.4 6.533 4.404 4.245-2.538.072 1.627 3.484c.267.47-.063.75-.224.324l-1.697-3.602-1.636 1.727z" opacity=".4" stroke="#fff"/><path d="m8.63 4.697 6.986 6.782-3.185.1 1.337 2.775c.41 1.233-1.438 1.695-1.746.77l-1.233-2.774-2.26 2.416.102-10.07z" opacity=".66" stroke="#666" stroke-linejoin="round"/></g></svg>

<svg xmlns="http://www.w3.org/2000/svg" xmlns:xlink="http://www.w3.org/1999/xlink" height="16" width="16"><defs><radialGradient id="g" gradientUnits="userSpaceOnUse" cy="24.149" cx="17.814" gradientTransform="matrix(-1.0867 0 0 1.04168 28.45 -19.52)" r="9.125"><stop offset="0" stop-color="#fff"/><stop offset="1" stop-color="#b6b6b6"/></radialGradient></defs><linearGradient id="e" gradientUnits="userSpaceOnUse" x1="7.814" x2="7.814" xlink:href="#a" y1="1.282" y2="14.67"/><linearGradient id="d" gradientTransform="matrix(.24324 0 0 -.24324 -9.45 14.168)" gradientUnits="userSpaceOnUse" x1="71.204" x2="71.204" xlink:href="#a" y1="6.238" y2="44.341"/><radialGradient id="c" cx="23.896" cy="3.99" gradientTransform="matrix(0 .4104 -.5417 0 10.16 -5.57)" gradientUnits="userSpaceOnUse" r="20.397"><stop offset="0" stop-color="#ed5353"/><stop offset="1" stop-color="#c6262e"/></radialGradient><radialGradient id="b" cx="23.896" cy="3.99" gradientTransform="matrix(0 .87967 -1.16115 0 12.633 -21.084)" gradientUnits="userSpaceOnUse" r="20.397"><stop offset="0" stop-color="#fff"/><stop offset=".262" stop-color="#ddd"/><stop offset=".661" stop-color="#abacae"/><stop offset="1" stop-color="#89898b"/></radialGradient><linearGradient id="a"><stop offset="0" stop-color="#fff"/><stop offset=".508" stop-color="#fff" stop-opacity=".235"/><stop offset=".835" stop-color="#fff" stop-opacity=".157"/><stop offset="1" stop-color="#fff" stop-opacity=".392"/></linearGradient><linearGradient id="f" gradientUnits="userSpaceOnUse" x1="7.928" x2="7.928" xlink:href="#a" y1="5.416" y2="10.565"/><g stroke-linecap="round" stroke-linejoin="round"><path d="M8 .502C3.863.502.502 3.862.502 8c0 4.137 3.36 7.498 7.498 7.498 4.137 0 7.498-3.36 7.498-7.498 0-4.137-3.36-7.498-7.498-7.498z" fill="url(#b)" stroke="#8c8c8c" stroke-width="1.004"/><path d="M8 4.502C6.07 4.502 4.502 6.07 4.502 8S6.07 11.498 8 11.498c1.93 0 3.498-1.568 3.498-3.498S9.93 4.502 8 4.502z" fill="url(#c)" stroke="#b10000" stroke-width="1.004"/><g fill="none"><path d="M12.5 8c0-2.485-2.015-4.5-4.5-4.5S3.5 5.515 3.5 8s2.015 4.5 4.5 4.5 4.5-2.015 4.5-4.5z" opacity=".5" stroke="url(#d)"/><path d="M14.5 8c0 3.59-2.91 6.5-6.5 6.5S1.5 11.59 1.5 8 4.41 1.5 8 1.5s6.5 2.91 6.5 6.5z" opacity=".8" stroke="url(#e)"/><path d="M10.5 8c0 1.38-1.12 2.5-2.5 2.5S5.5 9.38 5.5 8 6.62 5.5 8 5.5s2.5 1.12 2.5 2.5z" opacity=".5" stroke="url(#f)"/></g></g><path d="M8.63 4.697l6.986 6.782-3.185.1 1.337 2.775c.41 1.233-1.438 1.695-1.746.77l-1.233-2.774-2.26 2.416.102-10.07z" fill="url(#g)" fill-rule="evenodd"/><path d="M9.4 6.533l4.404 4.245-2.538.072 1.627 3.484c.267.47-.063.75-.224.324l-1.697-3.602-1.636 1.727.064-6.25z" opacity=".4" fill="none" stroke="#fff"/><path d="M8.63 4.697l6.986 6.782-3.185.1 1.337 2.775c.41 1.233-1.438 1.695-1.746.77l-1.233-2.774-2.26 2.416.102-10.07z" opacity=".66" fill="none" stroke="#666" stroke-linejoin="round"/></svg>
